X:3
T:GB/7c/3 Botany Bay Version 1 of 2
%%VWML:GB-7c-3-0
F:http://www.vwml.org/record/GB/7c/3
C:Transcribed by Simon Furey and Lewis Jones
L:1/4
M:4/4
I:linebreak $
K:Ddor
D | F G A B | c B A3/2 A/ | d3/2 e/ f e | d3 c |$ d3/2 c/ A G/F/ | G A D E/F/ | G3/2 F/ D C | D3 |]

